X: 204
T: The little house under the hill
C: anon.
O: Ireland
B: Francis O'Neill: "The Dance Music of Ireland" (1907) no. 204
R: Double jig
Z: Transcribed by Frank Nordberg - http://www.musicaviva.com
F: http://www.musicaviva.com/abc/tunes/ireland/oneill-1001/oneill-1001-020
4.abc
M: 6/8
L: 1/8
K: D
B|AGF AGF|AGF A2B|AGF AGF|GEF G2B|AGF AGF|AGF ABc|dcB AGF|GEF G2:|
||d|AFF DFF|AFF A2B|AFF DFF|GEF G2B|AFF DFF|AFG ABc|d (B/c/d) AGF|GEF G2:
|
||A|dFF AFF|dFF A2c|dFF AFF|GEF G2A|dFF AFF|dFF ABc|d(B/c/d/B/) AGF|GEF G
2: |
W:
W:
W: From Musica Viva - http://www.musicaviva.com
W: the Internet center for free sheet music downloads.


